X:45
C:Page 23
T:Hearts of Oak. MBe.45
S:Matthew Betham MS, Towcett Cumbria, 1815
O:England;Cumbria;Towcett
Z:VMP – Hugh Taylor, 2012
M:C
L:1/8
Q:1/2=100
R:.Air
K:D
A2 d2 dd d2|fe d2 dB A2|A2 B2 Bc d2|e2 f2 ge f2|
Bc d2 FG A2|Bc d2 FG A2|g2 f2 ed fa|Bd e2 ec A2||
cd e2 cd e2|ag f2 de f2|dc BB c2 dB|AB AG FD G2|
FD FG A2 fg|a2 A2 c2 d2|]

